X:1
T:Oakley, CMD
T:Oakley, CMD
T:William Henry Oakley, 1878
T:Public Domain Courtesy of the Cyber Hymnal™
C:William Henry Oakley, 1878
Z:Public Domain
Z:Courtesy of the Cyber Hymnal™
%%score ( 1 2 ) ( 3 4 )
L:1/8
Q:1/4=100
M:3/4
K:D
V:1 treble 
V:2 treble 
V:3 bass 
V:4 bass 
V:1
 D2 | [DF][FA] [FA]3 [FA] | [GB][FA] [FA]3 [FA] | [DF]3 [DA] D[DF] | [CE]4 D2 | %5
 [DF][DA] [DA]3 [DA] | [DB][DA] [DA]2 (DE) | [DF]3 [DF] [CF][CE] | D4 [FA]2 | %9
 [Fd]>[Fd] [Fd]3 [DA] | [DB][Dd] [DA]3 [FA] | [Fd]3 [FA] [DF][DA] | [CE]4 D2 | %13
 [DF][DA] [FA]3 [FA] | [GB][Gd] !fermata![Gd]2 (A[EB]) | [FA]3 [DF] [CF][CE] | D4 |] %17
V:2
 D2 | x6 | x6 | x4 D x | x4 D2 | x6 | x4 D2 | x6 | D4 x2 | x6 | x6 | x6 | x4 D2 | x6 | x4 A x | %15
 x6 | D4 |] %17
V:3
 [D,F,]2 | [D,A,][D,D] [D,D]3 [D,D] | [D,D][D,D] [D,D]3 [D,D] | [D,A,]3 [D,F,] [F,A,][D,A,] | %4
 [A,,A,]4 [D,F,]2 | [D,A,][D,F,] [D,F,]3 [D,F,] | [D,G,][D,F,] [D,F,]2 ([F,A,][G,B,]) | %7
 A,3 A, [A,,A,][A,,G,] | [D,F,]4 [D,D]2 | [D,A,]>[D,A,] [D,A,]3 [D,F,] | %10
 [G,,G,][B,,G,] [D,F,]3 [D,A,] | [D,A,]3 [D,A,] [D,A,][F,A,] | A,4 [D,F,]2 | %13
 [D,A,][D,F,] [D,D]3 [D,D] | [G,D][G,B,] !fermata![G,B,]2 D2 | A,3 A, [A,,A,][A,,G,] | [D,F,]4 |] %17
V:4
 x2 | x6 | x6 | x6 | x6 | x6 | x6 | A,3 A, x2 | x6 | x6 | x6 | x6 | A,4 x2 | x6 | x4 (F,G,) | %15
 A,3 A, x2 | x4 |] %17

